assets/images/icons/src/ellipsis-h.svg

<?xml version="1.0" encoding="utf-8"?>
<!-- Generated by IcoMoon.io -->
<!DOCTYPE svg PUBLIC "-//W3C//DTD SVG 1.1//EN" "http://www.w3.org/Graphics/SVG/1.1/DTD/svg11.dtd">
<svg version="1.1" xmlns="http://www.w3.org/2000/svg" xmlns:xlink="http://www.w3.org/1999/xlink" width="11" height="14" viewBox="0 0 11 14">
<path fill="#444444" d="M3 5.75v1.5q0 0.312-0.219 0.531t-0.531 0.219h-1.5q-0.312 0-0.531-0.219t-0.219-0.531v-1.5q0-0.312 0.219-0.531t0.531-0.219h1.5q0.312 0 0.531 0.219t0.219 0.531zM7 5.75v1.5q0 0.312-0.219 0.531t-0.531 0.219h-1.5q-0.312 0-0.531-0.219t-0.219-0.531v-1.5q0-0.312 0.219-0.531t0.531-0.219h1.5q0.312 0 0.531 0.219t0.219 0.531zM11 5.75v1.5q0 0.312-0.219 0.531t-0.531 0.219h-1.5q-0.312 0-0.531-0.219t-0.219-0.531v-1.5q0-0.312 0.219-0.531t0.531-0.219h1.5q0.312 0 0.531 0.219t0.219 0.531z"></path>
</svg>

<svg xmlns="http://www.w3.org/2000/svg" width="11" height="14" viewBox="0 0 11 14"><path fill="#444" d="M3 5.75v1.5q0 .312-.219.531T2.25 8H.75q-.312 0-.531-.219T0 7.25v-1.5q0-.312.219-.531T.75 5h1.5q.312 0 .531.219T3 5.75zm4 0v1.5q0 .312-.219.531T6.25 8h-1.5q-.312 0-.531-.219T4 7.25v-1.5q0-.312.219-.531T4.75 5h1.5q.312 0 .531.219T7 5.75zm4 0v1.5q0 .312-.219.531T10.25 8h-1.5q-.312 0-.531-.219T8 7.25v-1.5q0-.312.219-.531T8.75 5h1.5q.312 0 .531.219T11 5.75z"/></svg>
